X:1
T:Toss the Feathers
T:Toss the Feathers v2
R:reel
H:Other versions: #110 (Dmix), #163 (Edor), #652 (Ddor)
D:Milestone at the Garden
D:Kevin Burke: If the Cap Fits
Z:id:hn-reel-263
M:C|
K:Ddor
D2AD EDAD|D2AG EGGE|D2AD EDEG|1 AddB cAGE:|2 AcGE EDD2||
Adde d2cd|edcd ed~d2|eaag edcd|edcd ed~d2|
eaag e^fge|d=fed cAGE|D2ED EAAB|cded cAGE||

